X:1
T:Poor Old Man
M:4/4
L:1/4
K:G
 G| D E GG/2-A/2| B B A G3/4 A/4| B A2 G3/4 A/4| B A2| D E GG/2-A/2|\
 BB/2-A/2 G c| B3/2- G/2 A3/2- F/2| G3||
